svgs/yetcalc.svg

<svg xmlns="http://www.w3.org/2000/svg" viewBox="0 0 192 192"><path d="M16 162.07c.021-3.402.768-4.709 2.451-4.287 1.719.432 4.334-1.548 4.334-3.282 0-.841-2.14-11.922-3.065-15.87-.341-1.454-.161-1.529 3.682-1.529h4.041l.43 3.907c.237 2.148.49 4.353.563 4.899.072.546 1.019-1.212 2.104-3.907l1.972-4.899h3.968c2.183 0 3.969.143 3.969.317 0 .551-10.966 20.32-12.361 22.283-1.874 2.638-4.672 3.896-8.666 3.896-3.108 0-3.43-.144-3.422-1.528Zm25.594-8.265c-3.637-3.371-3.259-9.783.838-14.174 2.274-2.438 2.971-2.773 6.368-3.055 5.305-.44 7.19.169 8.237 2.66l.877 2.086.422-2.11c.298-1.492.809-2.11 1.744-2.11.914 0 1.458-.624 1.766-2.025.45-2.049.734-2.196 6.967-3.614 1.72-.391 1.716-.405.904 3.092-.58 2.496-.552 2.547 1.388 2.547 1.815 0 1.943.156 1.533 1.869-.649 2.714-.824 2.887-2.929 2.887-1.781 0-1.941.231-2.364 3.419-.529 3.992-.232 4.74 1.686 4.238 1.298-.339 1.37-.165.929 2.272-.262 1.452-.607 2.869-.767 3.149-.16.28-2.1.51-4.311.51-3.55 0-4.152-.201-5.145-1.717-1.116-1.703-1.089-3.688.132-9.663.393-1.921.27-2.208-.945-2.208-.909 0-1.472.51-1.614 1.461-.328 2.21-3.436 4.124-7.3 4.495-3.651.351-4.296 1.015-2.119 2.18.968.518 2.111.441 4.219-.286 1.591-.548 2.971-.917 3.068-.82.096.096-.012 1.33-.241 2.741-.502 3.089-1.958 3.817-7.64 3.817-3.216 0-4.255-.299-5.703-1.641Zm8.793-11.409c.223-.361.107-.955-.258-1.32-.672-.672-2.887.959-2.887 2.126 0 .728 2.61.06 3.145-.806Zm76.343 9.313v-3.057h36.686v6.114H126.73Zm0-14.267v-3.057h36.686v6.114H126.73ZM41.943 56.8c-1.053-1.053-1.053-4.79 0-5.843.449-.448 1.763-.815 2.922-.815 1.158 0 2.472.367 2.921.815.448.449.815 1.763.815 2.921 0 1.159-.367 2.473-.815 2.922-1.053 1.053-4.79 1.053-5.843 0Zm79.592-3.195c-5.707-3.522-4.07-14.02 2.661-17.075 2.89-1.312 11.666-1.904 12.232-.825.147.28 0 1.781-.327 3.335l-.595 2.825-2.382-.658c-1.888-.522-2.903-.403-4.897.572-2.15 1.05-2.547 1.6-2.727 3.778-.185 2.239.014 2.635 1.643 3.254 1.282.488 2.48.486 3.887-.004 1.119-.39 2.183-.561 2.363-.38.181.18.055 1.634-.28 3.23l-.61 2.901-4.415.183c-3.414.141-4.901-.117-6.553-1.137Zm15.084-.217c-2.226-3.179-.587-9.104 3.148-11.381 1.74-1.061 3.432-1.372 7.474-1.374 2.874-.001 5.402.284 5.618.634.216.35-.145 3.56-.802 7.133l-1.195 6.498h-3.234c-2.063 0-3.234-.296-3.234-.816 0-.634-.182-.634-.816 0-1.435 1.435-5.77 1.003-6.959-.694Zm8.828-5.602c1.168-2.795 1.196-3.079.305-3.079-1.179 0-3.396 2.661-3.396 4.076 0 2.214 2.022 1.562 3.091-.997Zm9.326 6.262c-1.426-1.843-1.377-3.374.374-11.469l1.816-8.403 3.31-.21 3.31-.21-.44 2.248c-.242 1.237-1.008 4.756-1.701 7.821-.694 3.065-1.115 5.719-.936 5.898.703.703 2.231-.479 2.231-1.726 0-2.204 1.946-5.246 4.054-6.336 2.053-1.061 8.527-1.43 9.091-.517.175.282.153 1.375-.049 2.429-.31 1.623-.614 1.854-1.989 1.508-2.021-.507-4.082.543-4.663 2.375-.657 2.071.771 3.383 3.163 2.905 1.935-.388 1.996-.326 1.534 1.557-.628 2.562-1.322 2.957-5.229 2.969-2.66.009-3.566-.32-4.925-1.787l-1.666-1.798V53.1c0 1.698-.184 1.798-3.314 1.798-1.848 0-3.605-.376-3.971-.85ZM26.182 43.008v-3.057h36.686v6.115H26.182Zm15.761-7.948c-1.053-1.053-1.053-4.79 0-5.843.449-.448 1.763-.815 2.922-.815 2.666 0 3.736 1.069 3.736 3.736 0 2.667-1.07 3.737-3.736 3.737-1.159 0-2.473-.367-2.922-.815Z"/></svg>

<svg
    xmlns="http://www.w3.org/2000/svg"
    viewBox="0 0 192 192"
    id="vector">
    <path
        id="path"
        d="M 16 162.07 C 16.021 158.668 16.768 157.361 18.451 157.783 C 20.17 158.215 22.785 156.235 22.785 154.501 C 22.785 153.66 20.645 142.579 19.72 138.631 C 19.379 137.177 19.559 137.102 23.402 137.102 L 27.443 137.102 L 27.873 141.009 C 28.11 143.157 28.363 145.362 28.436 145.908 C 28.508 146.454 29.455 144.696 30.54 142.001 L 32.512 137.102 L 36.48 137.102 C 38.663 137.102 40.449 137.245 40.449 137.419 C 40.449 137.97 29.483 157.739 28.088 159.702 C 26.214 162.34 23.416 163.598 19.422 163.598 C 16.314 163.598 15.992 163.454 16 162.07 Z M 41.594 153.805 C 37.957 150.434 38.335 144.022 42.432 139.631 C 44.706 137.193 45.403 136.858 48.8 136.576 C 54.105 136.136 55.99 136.745 57.037 139.236 L 57.914 141.322 L 58.336 139.212 C 58.634 137.72 59.145 137.102 60.08 137.102 C 60.994 137.102 61.538 136.478 61.846 135.077 C 62.296 133.028 62.58 132.881 68.813 131.463 C 70.533 131.072 70.529 131.058 69.717 134.555 C 69.137 137.051 69.165 137.102 71.105 137.102 C 72.92 137.102 73.048 137.258 72.638 138.971 C 71.989 141.685 71.814 141.858 69.709 141.858 C 67.928 141.858 67.768 142.089 67.345 145.277 C 66.816 149.269 67.113 150.017 69.031 149.515 C 70.329 149.176 70.401 149.35 69.96 151.787 C 69.698 153.239 69.353 154.656 69.193 154.936 C 69.033 155.216 67.093 155.446 64.882 155.446 C 61.332 155.446 60.73 155.245 59.737 153.729 C 58.621 152.026 58.648 150.041 59.869 144.066 C 60.262 142.145 60.139 141.858 58.924 141.858 C 58.015 141.858 57.452 142.368 57.31 143.319 C 56.982 145.529 53.874 147.443 50.01 147.814 C 46.359 148.165 45.714 148.829 47.891 149.994 C 48.859 150.512 50.002 150.435 52.11 149.708 C 53.701 149.16 55.081 148.791 55.178 148.888 C 55.274 148.984 55.166 150.218 54.937 151.629 C 54.435 154.718 52.979 155.446 47.297 155.446 C 44.081 155.446 43.042 155.147 41.594 153.805 Z M 50.387 142.396 C 50.61 142.035 50.494 141.441 50.129 141.076 C 49.457 140.404 47.242 142.035 47.242 143.202 C 47.242 143.93 49.852 143.262 50.387 142.396 Z M 126.73 151.709 L 126.73 148.652 L 163.416 148.652 L 163.416 154.766 L 126.73 154.766 Z M 126.73 137.442 L 126.73 134.385 L 163.416 134.385 L 163.416 140.499 L 126.73 140.499 Z M 41.943 56.8 C 40.89 55.747 40.89 52.01 41.943 50.957 C 42.392 50.509 43.706 50.142 44.865 50.142 C 46.023 50.142 47.337 50.509 47.786 50.957 C 48.234 51.406 48.601 52.72 48.601 53.878 C 48.601 55.037 48.234 56.351 47.786 56.8 C 46.733 57.853 42.996 57.853 41.943 56.8 Z M 121.535 53.605 C 115.828 50.083 117.465 39.585 124.196 36.53 C 127.086 35.218 135.862 34.626 136.428 35.705 C 136.575 35.985 136.428 37.486 136.101 39.04 L 135.506 41.865 L 133.124 41.207 C 131.236 40.685 130.221 40.804 128.227 41.779 C 126.077 42.829 125.68 43.379 125.5 45.557 C 125.315 47.796 125.514 48.192 127.143 48.811 C 128.425 49.299 129.623 49.297 131.03 48.807 C 132.149 48.417 133.213 48.246 133.393 48.427 C 133.574 48.607 133.448 50.061 133.113 51.657 L 132.503 54.558 L 128.088 54.741 C 124.674 54.882 123.187 54.624 121.535 53.604 Z M 136.619 53.388 C 134.393 50.209 136.032 44.284 139.767 42.007 C 141.507 40.946 143.199 40.635 147.241 40.633 C 150.115 40.632 152.643 40.917 152.859 41.267 C 153.075 41.617 152.714 44.827 152.057 48.4 L 150.862 54.898 L 147.628 54.898 C 145.565 54.898 144.394 54.602 144.394 54.082 C 144.394 53.448 144.212 53.448 143.578 54.082 C 142.143 55.517 137.808 55.085 136.619 53.388 Z M 145.447 47.786 C 146.615 44.991 146.643 44.707 145.752 44.707 C 144.573 44.707 142.356 47.368 142.356 48.783 C 142.356 50.997 144.378 50.345 145.447 47.786 Z M 154.773 54.048 C 153.347 52.205 153.396 50.674 155.147 42.579 L 156.963 34.176 L 160.273 33.966 L 163.583 33.756 L 163.143 36.004 C 162.901 37.241 162.135 40.76 161.442 43.825 C 160.748 46.89 160.327 49.544 160.506 49.723 C 161.209 50.426 162.737 49.244 162.737 47.997 C 162.737 45.793 164.683 42.751 166.791 41.661 C 168.844 40.6 175.318 40.231 175.882 41.144 C 176.057 41.426 176.035 42.519 175.833 43.573 C 175.523 45.196 175.219 45.427 173.844 45.081 C 171.823 44.574 169.762 45.624 169.181 47.456 C 168.524 49.527 169.952 50.839 172.344 50.361 C 174.279 49.973 174.34 50.035 173.878 51.918 C 173.25 54.48 172.556 54.875 168.649 54.887 C 165.989 54.896 165.083 54.567 163.724 53.1 L 162.058 51.302 L 162.058 53.1 C 162.058 54.798 161.874 54.898 158.744 54.898 C 156.896 54.898 155.139 54.522 154.773 54.048 Z M 26.182 43.008 L 26.182 39.951 L 62.868 39.951 L 62.868 46.066 L 26.182 46.066 Z M 41.943 35.06 C 40.89 34.007 40.89 30.27 41.943 29.217 C 42.392 28.769 43.706 28.402 44.865 28.402 C 47.531 28.402 48.601 29.471 48.601 32.138 C 48.601 34.805 47.531 35.875 44.865 35.875 C 43.706 35.875 42.392 35.508 41.943 35.06 Z"
        fill="#000000"
        stroke-width="12"/>
</svg>
